X:1
T:The Five Legged Goat
C:Robin Beech
Z:robin.beech@mcgill.ca
N:Halloween Composition 2008
M:5/8
L:1/8
K:Am
EE ABc | FF ABc | dd Bgf | ec AGF |
EE ABc | FF ABc | dc BA^G |1 ec AFD :|2 ed cBA |:
ae cAc | fd BGF | EA ccB| cB cde |
ae cAc | fd BGF | EA ccB |1 cd ee^g :|2 ed cBA |:
aa ece | aa fdf | bb ^geg | af dBG |
AA ece | AA fdf | Be ^gab |1 c'c' ba=g :|2 ea cBA |]
